MonoIcons/scalable/status/software-update-available-symbolic.svg

<?xml version="1.0" encoding="UTF-8"?>
<svg height="16px" viewBox="0 0 16 16" width="16px" xmlns="http://www.w3.org/2000/svg">
    <path d="m 8 0 c -0.257812 0 -0.511719 0.0976562 -0.707031 0.292969 l -1.707031 1.707031 h -2.585938 c -0.550781 0 -1 0.449219 -1 1 v 2.585938 l -1.707031 1.707031 c -0.3906252 0.390625 -0.3906252 1.023437 0 1.414062 l 1.707031 1.707031 v 2.585938 c 0 0.550781 0.449219 1 1 1 h 2.585938 l 1.707031 1.707031 c 0.390625 0.390625 1.023437 0.390625 1.414062 0 l 1.707031 -1.707031 h 2.585938 c 0.550781 0 1 -0.449219 1 -1 v -2.585938 l 1.707031 -1.707031 c 0.390625 -0.390625 0.390625 -1.023437 0 -1.414062 l -1.707031 -1.707031 v -2.585938 c 0 -0.550781 -0.449219 -1 -1 -1 h -2.585938 l -1.707031 -1.707031 c -0.195312 -0.1953128 -0.449219 -0.292969 -0.707031 -0.292969 z m 0 5 c 0.257812 0 0.511719 0.097656 0.707031 0.292969 l 2 2 c 0.183594 0.1875 0.289063 0.441406 0.285157 0.707031 h 0.007812 v 1 h -2 v 2 h -2 v -2 h -2 v -1 h 0.007812 c -0.003906 -0.265625 0.101563 -0.519531 0.285157 -0.707031 l 2 -2 c 0.195312 -0.195313 0.449219 -0.292969 0.707031 -0.292969 z m 0 0" fill="#2e3436"/>
</svg>

<svg width="16" height="16" viewBox="0 0 16 16" fill="none" xmlns="http://www.w3.org/2000/svg">
<g clip-path="url(#clip0_231_1076)">
<path d="M8 0C7.74219 0 7.48828 0.0976562 7.29297 0.292969L5.58594 2H3C2.44922 2 2 2.44922 2 3V5.58594L0.292969 7.29297C-0.0976563 7.68359 -0.0976563 8.31641 0.292969 8.70703L2 10.4141V13C2 13.5508 2.44922 14 3 14H5.58594L7.29297 15.707C7.68359 16.0977 8.31641 16.0977 8.70703 15.707L10.4141 14H13C13.5508 14 14 13.5508 14 13V10.4141L15.707 8.70703C16.0977 8.31641 16.0977 7.68359 15.707 7.29297L14 5.58594V3C14 2.44922 13.5508 2 13 2H10.4141L8.70703 0.292969C8.51172 0.0976562 8.25781 0 8 0V0ZM8 5C8.25781 5 8.51172 5.09766 8.70703 5.29297L10.707 7.29297C10.8906 7.48047 10.9961 7.73438 10.9922 8H11V9H9V11H7V9H5V8H5.00781C5.00391 7.73438 5.10938 7.48047 5.29297 7.29297L7.29297 5.29297C7.48828 5.09766 7.74219 5 8 5Z" fill="#2E3436"/>
</g>
<defs>
<clipPath id="clip0_231_1076">
<rect width="16" height="16" fill="white"/>
</clipPath>
</defs>
</svg>
